Icons/Colored/Dice.svg

<svg xmlns="http://www.w3.org/2000/svg" xml:space="preserve" fill-rule="evenodd" stroke-linejoin="round" stroke-miterlimit="2" clip-rule="evenodd" viewBox="0 0 64 64">
  <g id="orange">
    <path fill="#ffd49b" fill-rule="nonzero" d="M34.929 7.721H10.558a4.933 4.933 0 0 0-4.875 4.988v24.942a4.926 4.926 0 0 0 4.875 4.984h24.371a4.93 4.93 0 0 0 4.875-4.984V12.709a4.936 4.936 0 0 0-4.875-4.988m-19.5 27.434a2.5 2.5 0 0 1-2.344-1.5 2.497 2.497 0 0 1 3.23-3.305 2.5 2.5 0 0 1 1.551 2.313 2.462 2.462 0 0 1-2.437 2.492m0-14.965a2.498 2.498 0 0 1-2.344-1.5 2.497 2.497 0 0 1 .508-2.738 2.492 2.492 0 0 1 4.273 1.746 2.465 2.465 0 0 1-.699 1.754 2.47 2.47 0 0 1-1.738.742v-.004m7.312 7.484a2.503 2.503 0 0 1-2.344-1.5 2.493 2.493 0 1 1 4.782-.996 2.462 2.462 0 0 1-2.438 2.496m7.313 7.481a2.493 2.493 0 0 1-1.852-4.231 2.484 2.484 0 0 1 2.723-.574 2.499 2.499 0 0 1 1.558 2.313 2.466 2.466 0 0 1-2.429 2.492m0-14.965a2.493 2.493 0 0 1-1.852-4.234 2.508 2.508 0 0 1 2.727-.571 2.51 2.51 0 0 1 1.554 2.313 2.467 2.467 0 0 1-2.429 2.496v-.004"/>
  </g>
  <g id="brown">
    <path fill="#754600" fill-rule="nonzero" d="m55.46 26.846-13.301-4.953-.058 14.988a10.457 10.457 0 0 1-1.231 5.61 8.632 8.632 0 0 1-3.598 2.14l-14.222.004s-1.707 2.571.418 3.617l8.191 2.77 13.426 4.996a4.31 4.31 0 0 0 5.555-2.652l7.41-20.836a4.46 4.46 0 0 0-2.59-5.684M43.237 48.249a2.231 2.231 0 0 1-1.297-2.84c.188-.551.586-1 1.114-1.25a2.13 2.13 0 0 1 1.668-.082 2.231 2.231 0 0 1 1.293 2.843 2.152 2.152 0 0 1-2.778 1.329"/>
  </g>
</svg>

<?xml version="1.0" encoding="UTF-8" standalone="no"?>
<!DOCTYPE svg PUBLIC "-//W3C//DTD SVG 1.1//EN" "http://www.w3.org/Graphics/SVG/1.1/DTD/svg11.dtd">
<svg width="100%" height="100%" viewBox="0 0 64 64" version="1.1" xmlns="http://www.w3.org/2000/svg" xmlns:xlink="http://www.w3.org/1999/xlink" xml:space="preserve" xmlns:serif="http://www.serif.com/" style="fill-rule:evenodd;clip-rule:evenodd;stroke-linejoin:round;stroke-miterlimit:2;">
    <g id="surface1">
        <path d="M34.929,7.721L10.558,7.721C7.831,7.756 5.651,9.987 5.683,12.709L5.683,37.651C5.651,40.374 7.831,42.604 10.558,42.635L34.929,42.635C37.651,42.604 39.835,40.374 39.804,37.651L39.804,12.709C39.835,9.987 37.651,7.756 34.929,7.721M15.429,35.155C14.417,35.178 13.491,34.584 13.085,33.655C12.683,32.725 12.882,31.643 13.589,30.92C14.3,30.194 15.378,29.967 16.315,30.35C17.253,30.737 17.866,31.647 17.866,32.663C17.878,33.315 17.62,33.944 17.167,34.413C16.71,34.881 16.085,35.147 15.429,35.155M15.429,20.19C14.417,20.213 13.491,19.62 13.085,18.69C12.683,17.76 12.882,16.678 13.593,15.952C14.3,15.229 15.378,15.006 16.315,15.389C17.257,15.772 17.866,16.686 17.866,17.698C17.878,18.354 17.62,18.983 17.167,19.452C16.71,19.92 16.085,20.186 15.429,20.194L15.429,20.19M22.741,27.674C21.729,27.694 20.804,27.104 20.397,26.174C19.995,25.245 20.194,24.163 20.901,23.436C21.612,22.709 22.687,22.487 23.628,22.87C24.565,23.252 25.179,24.166 25.179,25.178C25.187,25.834 24.937,26.463 24.479,26.932C24.019,27.401 23.397,27.666 22.741,27.674M30.054,35.155C29.038,35.182 28.108,34.592 27.702,33.663C27.296,32.733 27.495,31.651 28.202,30.924C28.909,30.194 29.987,29.967 30.925,30.35C31.866,30.733 32.483,31.647 32.483,32.663C32.499,34.018 31.413,35.135 30.054,35.155M30.054,20.19C29.038,20.217 28.108,19.627 27.702,18.698C27.296,17.768 27.495,16.686 28.202,15.956C28.909,15.233 29.987,15.006 30.929,15.385C31.866,15.772 32.483,16.686 32.483,17.698C32.499,19.057 31.413,20.174 30.054,20.194L30.054,20.19" style="fill:#ffd49b;fill-rule:nonzero;"/>
        <path d="M55.46,26.846L42.159,21.893L42.101,36.881C42.222,38.831 41.796,40.772 40.87,42.491C39.862,43.491 38.632,44.221 37.272,44.631L23.05,44.635C23.05,44.635 21.343,47.206 23.468,48.252L31.659,51.022L45.085,56.018C46.171,56.416 47.374,56.358 48.421,55.858C49.464,55.362 50.265,54.459 50.64,53.366L58.05,32.53C58.878,30.245 57.726,27.717 55.46,26.846M43.237,48.249C42.104,47.811 41.526,46.549 41.94,45.409C42.128,44.858 42.526,44.409 43.054,44.159C43.573,43.905 44.175,43.877 44.722,44.077C45.854,44.514 46.429,45.776 46.015,46.92C45.827,47.467 45.429,47.916 44.905,48.17C44.382,48.42 43.78,48.448 43.237,48.249" style="fill:#754600;fill-rule:nonzero;"/>
    </g>
</svg>
